X: 42517
T: Wheels Of The World, The
R: reel
M: 4/4
K: Dmixolydian
dc|:AD (3DDD FAGF|EC (3CCC G,CEG|AD (3DDD FAde|=fedc Addc|
AD (3DDD FAGF|EDCD EFGc|AddB cBAG|1 ECGE D2 dc:|2 ECGE D2 AB||
|:dAdf afdf|ecgc acgc|dAdf afdf|edce d2 A(3BBc|
dAdf afdf|ecgc acge|abag efge|1 fage d2 AB:|2 fage d2 dc||

